!!!COM: Gaspar van Weerbeke
!!!CDT: ~1450-~1517
!!!OPR: Missa Ave regina celorum
!!!OTL: Sanctus
!!!ONM: 4
!!!AGN: Mass
!!!SCT: Gas0101d
!!!SCA: Gas0101d
!!!voices: 4
**kern	**text	**kern	**text	**kern	**text	**kern	**text
*part4	*part4	*part3	*part3	*part2	*part2	*part1	*part1
*staff4	*staff4	*staff3	*staff3	*staff2	*staff2	*staff1	*staff1
*I"Bassus	*	*I"Tenor	*	*I"Altus	*	*I"Superius	*
*I'B	*	*I'T	*	*I'A	*	*I'S	*
*clefF4	*	*clefF4	*	*clefGv2	*	*clefGv2	*
*k[b-]	*	*k[b-]	*	*k[b-]	*	*k[b-]	*
*M3/2	*	*M3/2	*	*M3/2	*	*M3/2	*
*met(O)	*	*met(O)	*	*met(O)	*	*met(O)	*
=1	=1	=1	=1	=1	=1	=1	=1
*	*	*	*	*col	*	*	*
1.r	.	1.r	.	[1.F	San-	1.F	San-
=2	=2	=2	=2	=2	=2	=2	=2
1.r	.	1.r	.	2F]	.	4.A	.
*	*	*	*	*Xcol	*	*	*
.	.	.	.	.	.	8B-y	.
.	.	.	.	4.E	.	4.c	.
.	.	.	.	8C	.	8A	.
.	.	.	.	4D	.	4B-y	.
*	*	*	*	*lig	*	*	*
*	*	*	*	*col	*	*	*
.	.	.	.	[4E	.	[4c	.
=3	=3	=3	=3	=3	=3	=3	=3
1.r	.	1.r	.	4E]	.	8c]L	.
.	.	.	.	.	.	8dJ	.
.	.	.	.	2C	.	2e	.
*	*	*	*	*Xcol	*	*	*
*	*	*	*	*Xlig	*	*	*
.	.	.	.	2D	.	4f	.
.	.	.	.	.	.	4.d	.
.	.	.	.	4E	.	.	.
.	.	.	.	.	.	8c	.
=4	=4	=4	=4	=4	=4	=4	=4
*	*	*	*	*	*edit	*	*
1.r	.	1.r	.	2F	-ctus,	2A	-ctus,
.	.	.	.	4r	.	4G	.
*	*	*	*	*	*	*	*edit
.	.	.	.	2F	san-	2A	san-
.	.	.	.	4G	.	4B-y	.
!!LO:LB:g=original
=5	=5	=5	=5	=5	=5	=5	=5
1.r	.	1.r	.	4F	.	4A	.
.	.	.	.	2G	.	2B-y	.
.	.	.	.	2A	.	2A	.
.	.	.	.	4B-y	.	4G	.
=6	=6	=6	=6	=6	=6	=6	=6
1.r	.	1.r	.	2A	.	4A	.
.	.	.	.	.	.	4.B-y	.
.	.	.	.	4G	.	.	.
.	.	.	.	.	.	8A	.
.	.	.	.	4A	.	4F	.
.	.	.	.	4B-y	.	4G	.
.	.	.	.	[4c	.	[4F	.
=7	=7	=7	=7	=7	=7	=7	=7
2r	.	1.r	.	8c]L	.	4F]	.
.	.	.	.	8B-yJ	.	.	.
.	.	.	.	4G	.	4E	.
2FF	San-	.	.	4A	.	4F	.
.	.	.	.	2F	.	4A	.
2C	.	.	.	.	.	2G	.
.	.	.	.	4E	.	.	.
=8	=8	=8	=8	=8	=8	=8	=8
4.D	.	1.r	.	8FL	.	2F	-ctus,
.	.	.	.	8G	.	.	.
.	.	.	.	8A	.	.	.
8C	.	.	.	8B-yJ	.	.	.
4AA	.	.	.	4c	.	4r	.
4BB-y	.	.	.	4B-y	.	2f	san-
*	*	*	*	*	*Xedit	*	*
2C	-ctus,	.	.	2G	-ctus,	.	.
.	.	.	.	.	.	4e	.
=9	=9	=9	=9	=9	=9	=9	=9
*	*edit	*	*	*	*	*	*
4.FF	san-	[1.F	San-	4.A	san-	1f	-ctus,
8GG	.	.	.	8B-y	.	.	.
4AA	.	.	.	4c	.	.	.
2BB-y	.	.	.	2d	.	.	.
.	.	.	.	.	.	2r	.
4C	.	.	.	4c	.	.	.
!!LO:LB:g=original
=10	=10	=10	=10	=10	=10	=10	=10
*	*	*	*	*	*	*	*Xedit
2D	.	1.F]	.	2A	.	4.f	san-
.	.	.	.	.	.	8e	.
4AA	.	.	.	4c	.	4c	.
2BB-y	.	.	.	2B-y	.	2d	.
4FF	.	.	.	4A	.	4c	.
=11	=11	=11	=11	=11	=11	=11	=11
*	*	*lig	*	*	*	*	*
1C	-ctus,	1.E	.	2G	-ctus,	4e	.
.	.	.	.	.	.	4.g	.
.	.	.	.	2r	.	.	.
.	.	.	.	.	.	8fL	.
.	.	.	.	.	.	8e	.
.	.	.	.	.	.	8dJ	.
*	*	*	*	*	*edit	*	*
2r	.	.	.	2G	san-	4.c	.
.	.	.	.	.	.	8B-y	.
=12	=12	=12	=12	=12	=12	=12	=12
2.F	san-	1D	.	4A	.	4.d	.
*	*	*Xlig	*	*	*	*	*
.	.	.	.	4B-y	.	.	.
.	.	.	.	.	.	8e	.
.	.	.	.	4.A	.	2f	.
4D	.	.	.	.	.	.	.
.	.	.	.	8G	.	.	.
[2C	.	2E	.	4E	.	4.g	.
.	.	.	.	[4G	.	.	.
.	.	.	.	.	.	8f	.
=13	=13	=13	=13	=13	=13	=13	=13
4C]	.	2.C	.	8G]L	.	8eL	.
.	.	.	.	8FJ	.	8dJ	.
4AA	.	.	.	4.A	.	4e	.
*lig	*	*	*	*	*	*	*
2FF	.	.	.	.	.	4.f	.
.	.	.	.	8G	.	.	.
.	.	2D	.	4F	.	.	.
.	.	.	.	.	.	8e	.
2GG	.	.	.	4.BB-y	.	4d	.
*Xlig	*	*	*	*	*	*	*
.	.	4E	.	.	.	8cL	.
.	.	.	.	8AA	.	8B-yJ	.
!!LO:LB:g=original
=14	=14	=14	=14	=14	=14	=14	=14
*	*	*col	*	*	*	*	*
1.FF	-ctus,	1F	-ctus,	2C	-ctus,	2A	-ctus,
.	.	.	.	4r	.	2r	.
*	*	*	*	*	*Xedit	*	*
.	.	.	.	2c	san-	.	.
.	.	2r	.	.	.	4.f	san-
.	.	.	.	[4A	.	.	.
.	.	.	.	.	.	8e	.
=15	=15	=15	=15	=15	=15	=15	=15
4r	.	2r	.	4A]	.	4f	.
2EE-X	san-	.	.	4.B-y	.	4.g	.
.	.	2r	.	.	.	.	.
.	.	.	.	8A	.	8f	.
4EE-	.	.	.	4G	.	4g	.
*	*	*lig	*	*	*edit	*	*edit
2FF	-ctus,	[2F	san-	4F	-ctus,	2a	-ctus,
.	.	.	.	[4C	san-	.	.
=16	=16	=16	=16	=16	=16	=16	=16
*lig	*Xedit	*	*	*	*	*	*
2FF	san-	2F]	.	4C]	.	2a	san-
.	.	.	.	4D	.	.	.
2C	.	1G	.	4E	.	4.g	.
*Xlig	*	*Xcol	*	*	*	*	*
*	*	*Xlig	*	*	*	*	*
.	.	.	.	4C	.	.	.
.	.	.	.	.	.	8a	.
4.BB-y	.	.	.	4.D	.	2b-y	.
8AA	.	.	.	8E	.	.	.
=17	=17	=17	=17	=17	=17	=17	=17
4.FF	.	1A	.	2F	.	4.a	.
8GG	.	.	.	.	.	8g	.
8AAL	.	.	.	2c	.	4f	.
8BB-yJ	.	.	.	.	.	.	.
4.C	.	.	.	.	.	4.e	.
.	.	2G	.	4A	.	.	.
8BB-y	.	.	.	.	.	8f	.
4GG	.	.	.	4B-y	.	4g	.
!!LO:PB:g=original
=18	=18	=18	=18	=18	=18	=18	=18
4FF	.	4A	.	4A	.	4c	.
2BB-y	.	2B-y	.	2F	.	4.d	.
.	.	.	.	.	.	8c	.
4FF	.	4A	.	2.c	.	2f	.
2C	.	2G	.	.	.	.	.
.	.	.	.	.	.	4e	.
=19	=19	=19	=19	=19	=19	=19	=19
*col	*	*	*	*	*	*	*Xedit
1FF	-ctus	2F	-ctus	4A	-ctus,	1f	-ctus
.	.	.	.	4.A	san-	.	.
.	.	2r	.	.	.	.	.
.	.	.	.	8GL	.	.	.
.	.	.	.	8F	.	.	.
.	.	.	.	8EJ	.	.	.
2r	.	2F	Do-	2D	.	4r	.
.	.	.	.	.	.	4f	Do-
=20	=20	=20	=20	=20	=20	=20	=20
*	*	*lig	*	*	*Xedit	*	*
2r	.	2E	.	2C	-ctus	4g	.
.	.	.	.	.	.	4e	.
*lig	*	*	*	*	*	*	*
2BB-y	Do-	2D	.	4r	.	4f	.
*	*	*Xlig	*	*	*	*lig	*
.	.	.	.	4G	Do-	2d	-mi-
2AA	.	4E	.	4A	.	.	.
*Xlig	*	*	*	*	*	*	*
*Xcol	*	*	*	*	*	*	*
.	.	4C	.	4F	.	[4c	.
=21	=21	=21	=21	=21	=21	=21	=21
*	*	*	*	*	*edit	*	*
2GG	.	2D	.	2G	-mi	4c]	.
*	*	*	*	*	*	*Xlig	*
.	.	.	.	.	.	4Bni	.
4AA	.	4C	.	4C	nus,	2c	-nus,
4FF	.	2F	-mi-	4c	Do-	.	.
2GG	.	.	.	4B-y	.	4r	.
*	*	*	*	*	*	*	*edit
.	.	4E	.	4G	.	4B-y	Do-
=22	=22	=22	=22	=22	=22	=22	=22
4FF	.	1.F	-nus,	4A	.	4c	.
2BB-y	.	.	.	2B-y	.	2d	.
4AA	.	.	.	4c	.	4c	.
4BB-y	.	.	.	4B-y	.	4d	.
*	*	*	*	*	*Xedit	*	*
4D	.	.	.	[4B-y	-mi-	4f	.
!!LO:LB:g=original
=23	=23	=23	=23	=23	=23	=23	=23
2C	-mi-	2r	.	4B-]	.	2e	.
.	.	.	.	4A	.	.	.
*	*	*lig	*edit	*	*	*	*
2.BB-y	-nus,	2F	Do-	2B-y	-nus	4d	.
.	.	.	.	.	.	4.d	-mi-
.	.	2G	.	2r	.	.	.
*	*	*Xlig	*	*	*	*	*
.	.	.	.	.	.	8c	.
8AAL	.	.	.	.	.	4B-y	.
8GGJ	.	.	.	.	.	.	.
=24	=24	=24	=24	=24	=24	=24	=24
2FF	Do-	2A	.	1.r	.	2A	-nus
4.EE	.	4.G	.	.	.	2r	.
8FF	.	8A	.	.	.	.	.
4GG	.	4B-y	.	.	.	2r	.
[4AA	.	[4c	.	.	.	.	.
=25	=25	=25	=25	=25	=25	=25	=25
4AA]	.	4c]	.	1.r	.	1.r	.
4GG	.	4B-y	.	.	.	.	.
4FF	.	4A	.	.	.	.	.
4GG	.	4B-y	.	.	.	.	.
2EE	-mi-	2G	-mi-	.	.	.	.
=26	=26	=26	=26	=26	=26	=26	=26
*	*	*	*	*	*	*	*Xedit
2FF	-nus	2F	-nus	4r	.	2f	De-
.	.	.	.	4F	De-	.	.
4r	.	1r	.	4E	.	4g	.
4F	De-	.	.	4F	.	4a	.
4E	.	.	.	4G	.	4b-y	.
4F	.	.	.	4A	.	[4a	.
=27	=27	=27	=27	=27	=27	=27	=27
2G	.	2r	.	2B-y	.	4a]	.
.	.	.	.	.	.	4g	.
*	*	*	*Xedit	*	*	*	*
2D	.	2F	De-	4.A	.	4.a	.
.	.	.	.	8B-y	.	8g	.
2C	.	4G	.	2c	-us	4e	.
.	.	4A	.	.	.	4c	.
!!LO:LB:g=original
=28	=28	=28	=28	=28	=28	=28	=28
4G	.	4B-y	.	2r	.	4d	.
4F	.	2A	.	.	.	4A	.
*	*	*	*	*	*edit	*	*
2G	.	.	.	2d	Sa-	2B-y	.
.	.	4G	.	.	.	.	.
4.D	-us	2A	-us	4.d	.	2A	-us
8E	.	.	.	8c	.	.	.
=29	=29	=29	=29	=29	=29	=29	=29
4F	.	2r	.	4A	.	4r	.
*	*edit	*	*edit	*	*	*	*
4D	Sa-	.	.	4F	.	4d	Sa-
4.C	.	1c	Sa-	4G	.	4.e	.
.	.	.	.	4A	.	.	.
8D	.	.	.	.	.	8f	.
4E	.	.	.	4G	.	4g	.
[4F	.	.	.	4F	.	[4a	.
=30	=30	=30	=30	=30	=30	=30	=30
4F]	.	4c	-ba-	4A	.	4a]	.
4G	.	2B-y	.	4B-y	.	2g	.
4E	.	.	.	4G	.	.	.
4F	.	4A	.	2.c	-ba-	2f	-ba-
*	*Xedit	*	*	*	*	*	*
2C	-ba-	2G	.	.	.	.	.
.	.	.	.	.	.	4e	.
=31	=31	=31	=31	=31	=31	=31	=31
*	*edit	*lig	*	*	*	*	*edit
2FF	-oth,	2F	.	4A	-oth,	2f	-oth,
.	.	.	.	4F	.	.	.
2r	.	2G	.	4B-y	.	4.d	Sa-
*	*	*Xlig	*	*	*	*	*
.	.	.	.	4G	.	.	.
.	.	.	.	.	.	8c	.
2r	.	2A	.	4.F	Sa-	4A	.
.	.	.	.	.	.	[4c	-ba-
.	.	.	.	8G	.	.	.
=32	=32	=32	=32	=32	=32	=32	=32
1.r	.	2F	-oth,	8AL	.	8c]L	.
.	.	.	.	8B-yJ	.	8B-y	.
.	.	.	.	2c	.	8A	.
.	.	.	.	.	.	8GJ	.
.	.	2r	.	.	.	2.F	-oth,
.	.	.	.	4.d	.	.	.
*	*	*	*Xedit	*	*	*	*
.	.	2F	Sa-	.	.	.	.
.	.	.	.	8e	.	.	.
.	.	.	.	[4f	.	[4A	Sa-
!!LO:LB:g=original
=33	=33	=33	=33	=33	=33	=33	=33
*	*	*lig	*	*	*	*	*
1.r	.	2D	-ba-	8f]L	.	4A]	.
.	.	.	.	8eJ	.	.	.
.	.	.	.	2d	.	4B-y	.
.	.	2E	.	.	.	4G	.
*	*	*Xlig	*	*	*	*	*
.	.	.	.	2c	-ba-	4c	.
.	.	2D	.	.	.	4d	.
.	.	.	.	4Bni	.	4f	.
=34	=34	=34	=34	=34	=34	=34	=34
*	*	*	*edit	*	*	*	*
1.r	.	1C	-oth,	2c	-oth,	4.e	.
.	.	.	.	.	.	8f	.
*	*	*	*	*	*Xedit	*	*
.	.	.	.	2c	Sa-	2g	.
.	.	4.D	Sa-	2A	.	2f	.
.	.	8E	.	.	.	.	.
=35	=35	=35	=35	=35	=35	=35	=35
2FF	sa-	2F	-ba-	4F	.	4d	.
*	*	*	*	*	*edit	*	*
.	.	.	.	2A	-ba-	2c	.
4C	-ba-	4E	.	.	.	.	.
4D	.	4F	.	4B-y	.	2f	-ba-
2C	-oth,	2G	.	2c	-oth,	.	.
.	.	.	.	.	.	4e	.
=36	=36	=36	=36	=36	=36	=36	=36
*lig	*	*	*	*	*	*	*
2FF	sa-	2F	-oth,	4r	.	2f	-oth,
.	.	.	.	4A	Sa-	.	.
2GG	.	2r	.	8B-yL	.	2r	.
*Xlig	*	*	*	*	*	*	*
.	.	.	.	8A	.	.	.
.	.	.	.	8G	.	.	.
.	.	.	.	8FJ	.	.	.
2AA	.	2r	.	4E	.	2r	.
.	.	.	.	[4F	.	.	.
=37	=37	=37	=37	=37	=37	=37	=37
2BB-y	.	2r	.	8F]L	.	1.r	.
.	.	.	.	8EJ	.	.	.
.	.	.	.	4D	.	.	.
2AA	.	2F	Sa-	2C	.	.	.
4GG	.	2G	.	4D	.	.	.
[4C	-ba-	.	.	4E	.	.	.
!!LO:PB:g=original
=38	=38	=38	=38	=38	=38	=38	=38
*	*	*lig	*	*	*	*	*
8C]L	.	2A	.	4C	.	4r	.
8BB-yJ	.	.	.	.	.	.	.
*	*	*	*	*	*Xedit	*	*
4AA	.	.	.	2F	-ba-	4f	Sa-
2GG	.	2B-y	.	.	.	2g	.
*	*	*Xlig	*	*	*edit	*	*
.	.	.	.	4E	.	.	.
4FF	-oth,	2A	.	2F	-oth,	2a	.
4F	sa-	.	.	.	.	.	.
=39	=39	=39	=39	=39	=39	=39	=39
4E-j	.	4G	.	4G	Sa-	4b-y	.
4.F	.	2c	-ba-	4.A	.	2a	.
8C	.	.	.	8B-y	.	.	.
*	*	*	*	*	*	*	*Xedit
4F	.	8B-yL	.	4.c	.	2f	-ba-
.	.	8AJ	.	.	.	.	.
2C	.	2G	.	.	.	.	.
.	.	.	.	8d	.	.	.
.	.	.	.	4e	.	4e	.
=40	=40	=40	=40	=40	=40	=40	=40
4FF	.	[1.Fl	-oth.	4A	.	[1.fl	-oth.
4BB-y	.	.	.	4B-y	.	.	.
4AA	.	.	.	4c	.	.	.
*	*Xedit	*	*	*	*Xedit	*	*
4.BB-y	-ba-	.	.	4.d	-ba-	.	.
8FF	.	.	.	8c	.	.	.
4BB-y	.	.	.	4B-y	.	.	.
=41	=41	=41	=41	=41	=41	=41	=41
*	*	*	*	*^	*	*	*
1.FFl	-oth.	1.F]	.	1.cl	1.Al	-oth.	1.f]	.
*	*	*	*	*v	*v	*	*	*
!!LO:LB:g=original
=42||	=42||	=42||	=42||	=42||	=42||	=42||	=42||
*M2/2	*	*M2/2	*	*M2/2	*	*M2/2	*
*met(C|)	*	*met(C|)	*	*met(C|)	*	*met(C|)	*
1r	.	1r	.	2F	Ple-	2.f	Ple-
.	.	.	.	4.F	.	.	.
.	.	.	.	.	.	8eL	.
.	.	.	.	8G	.	8dJ	.
=43	=43	=43	=43	=43	=43	=43	=43
1r	.	1r	.	4A	.	4c	.
.	.	.	.	2B-y	.	2d	.
.	.	.	.	8AL	.	4c	.
.	.	.	.	8GJ	.	.	.
=44	=44	=44	=44	=44	=44	=44	=44
1r	.	1r	.	4F	.	4A	.
.	.	.	.	4G	.	4B-y	.
.	.	.	.	2E	-ni	2G	-ni,
=45	=45	=45	=45	=45	=45	=45	=45
*	*	*	*	*	*edit	*	*
2FF	Ple-	1r	.	2F	sunt,	1r	.
4.FF	.	.	.	2C	.	.	.
8GG	.	.	.	.	.	.	.
=46	=46	=46	=46	=46	=46	=46	=46
*	*	*	*	*	*	*	*edit
4AA	.	1r	.	4r	.	2F	ple-
2BB-y	.	.	.	2D	ple-	.	.
.	.	.	.	.	.	4F	.
8AAL	.	.	.	8CL	.	4G	.
8GGJ	.	.	.	8BB-yJ	.	.	.
=47	=47	=47	=47	=47	=47	=47	=47
4FF	.	1r	.	4C	.	4A	.
4GG	.	.	.	4BB-y	.	2B-y	.
2EE-i	-ni	.	.	2E-i	-ni	.	.
.	.	.	.	.	.	8AL	.
.	.	.	.	.	.	8GJ	.
!!LO:LB:g=original
=48	=48	=48	=48	=48	=48	=48	=48
*	*edit	*	*	*	*Xedit	*	*
4FF	sunt,	1r	.	2C	sunt	4F	.
4.C	ple-	.	.	.	.	4G	.
.	.	.	.	2r	.	2E	-ni
8BB-y	.	.	.	.	.	.	.
4C	-ni	.	.	.	.	.	.
=49	=49	=49	=49	=49	=49	=49	=49
*	*Xedit	*	*	*	*	*	*
1D	sunt	1r	.	1r	.	4F	sunt,
.	.	.	.	.	.	2A	ple-
.	.	.	.	.	.	4B-y	.
=50	=50	=50	=50	=50	=50	=50	=50
*	*edit	*	*	*	*	*	*
4.C	ce-	1r	.	1r	.	4.c	.
8D	.	.	.	.	.	8B-y	.
4E	.	.	.	.	.	4c	-ni
*	*	*	*	*	*	*	*Xedit
[4F	.	.	.	.	.	[4d	sunt
=51	=51	=51	=51	=51	=51	=51	=51
4F]	.	1r	.	1r	.	2.d]	.
2G	.	.	.	.	.	.	.
*	*	*	*	*	*	*	*edit
[4A	.	.	.	.	.	[4c	ce-
=52	=52	=52	=52	=52	=52	=52	=52
4A]	.	1r	.	1r	.	8c]L	.
.	.	.	.	.	.	8dJ	.
4G	.	.	.	.	.	4e	.
*	*	*	*	*	*	*lig	*
4F	.	.	.	.	.	2f	.
4D	.	.	.	.	.	.	.
!!LO:LB:g=original
=53	=53	=53	=53	=53	=53	=53	=53
2C	-li,	1r	.	4.c	ce-	2g	.
*	*	*	*	*	*	*Xlig	*
.	.	.	.	8B-y	.	.	.
2F	ce-	.	.	4.A	.	2a	.
.	.	.	.	8G	.	.	.
=54	=54	=54	=54	=54	=54	=54	=54
4C	.	1r	.	4E	.	4g	.
4.D	.	.	.	2F	.	4f	.
.	.	.	.	.	.	4a	.
8CL	.	.	.	.	.	.	.
8BB-y	.	.	.	[4G	.	[4b-y	.
8AAJ	.	.	.	.	.	.	.
=55	=55	=55	=55	=55	=55	=55	=55
4GG	-li,	1r	.	8G]L	.	8b-]L	.
.	.	.	.	8F	.	8a	.
4.C	ce-	.	.	8E	.	8g	.
.	.	.	.	8DJ	.	8fJ	.
.	.	.	.	2E	-li,	2g	-li,
8BB-y	.	.	.	.	.	.	.
4C	.	.	.	.	.	.	.
=56	=56	=56	=56	=56	=56	=56	=56
*	*	*	*	*	*edit	*	*
4.D	.	1r	.	4.F	ce-	4r	.
.	.	.	.	.	.	4f	ce-
8C	.	.	.	8G	.	.	.
4AA	.	.	.	4A	.	4e	.
[4BB-y	.	.	.	[4D	.	[4d	.
!!LO:LB:g=original
=57	=57	=57	=57	=57	=57	=57	=57
4BB-]	.	1r	.	8D]L	.	4d]	.
.	.	.	.	8EJ	.	.	.
4.FF	.	.	.	4F	.	2c	.
.	.	.	.	4.C	.	.	.
8GGL	.	.	.	.	.	.	.
8AA	.	.	.	.	.	8B-yL	.
8BB-yJ	.	.	.	8D	.	8AJ	.
=58	=58	=58	=58	=58	=58	=58	=58
1C	-li,	1r	.	1E	-li,	2G	-li,
.	.	.	.	.	.	4r	.
*	*	*	*	*	*	*	*Xedit
.	.	.	.	.	.	[4G	ce-
=59	=59	=59	=59	=59	=59	=59	=59
1r	.	1r	.	2r	.	8G]L	.
.	.	.	.	.	.	8AJ	.
.	.	.	.	.	.	4B-y	.
.	.	.	.	4E	ce-	4c	.
.	.	.	.	4F	.	4d	.
=60	=60	=60	=60	=60	=60	=60	=60
1r	.	1r	.	4G	.	2e	.
.	.	.	.	4.A	.	.	.
.	.	.	.	.	.	4f	.
.	.	.	.	8B-y	.	.	.
.	.	.	.	[4c	.	[4e	.
=61	=61	=61	=61	=61	=61	=61	=61
*	*Xedit	*	*	*	*	*	*
4.C	ce-	1r	.	4c]	.	4e]	.
.	.	.	.	2e	.	2g	.
8D	.	.	.	.	.	.	.
4E	.	.	.	.	.	.	.
4F	.	.	.	[4d	.	4a	.
!!LO:PB:g=original
=62	=62	=62	=62	=62	=62	=62	=62
4G	.	1r	.	4d]	.	4b-y	.
4.A	.	.	.	4c	.	2cc	.
.	.	.	.	2F	.	.	.
8G	.	.	.	.	.	.	.
[4F	.	.	.	.	.	[4a	.
=63	=63	=63	=63	=63	=63	=63	=63
8F]L	.	1r	.	4A	.	8a]L	.
8EJ	.	.	.	.	.	8gJ	.
4D	.	.	.	4B-y	.	2f	.
2C	-li	.	.	2G	.	.	.
.	.	.	.	.	.	4e	.
=64	=64	=64	=64	=64	=64	=64	=64
4r	.	1r	.	[1F	-li	2f	-li
2D	et	.	.	.	.	.	.
.	.	.	.	.	.	2r	.
8CL	.	.	.	.	.	.	.
8BB-yJ	.	.	.	.	.	.	.
=65	=65	=65	=65	=65	=65	=65	=65
*	*edit	*	*	*	*	*	*
4.AA	ter-	1r	.	1F]	.	2.c	et
8GG	.	.	.	.	.	.	.
4AA	.	.	.	.	.	.	.
[4BB-y	.	.	.	.	.	[4d	ter-
=66	=66	=66	=66	=66	=66	=66	=66
4BB-]	.	1r	.	2r	.	4d]	.
8AAL	.	.	.	.	.	8cL	.
8GGJ	.	.	.	.	.	8B-yJ	.
*	*	*	*	*	*Xedit	*	*
2FF	-ra,	.	.	[2c	et	2A	.
=67	=67	=67	=67	=67	=67	=67	=67
2r	.	1r	.	4c]	.	4F	.
.	.	.	.	2d	ter-	2B-y	.
*	*Xedit	*	*	*	*	*	*
4.BB-y	ter-	.	.	.	.	.	.
.	.	.	.	8cL	.	8AL	.
8C	.	.	.	8B-yJ	.	8GJ	.
!!LO:LB:g=original
=68	=68	=68	=68	=68	=68	=68	=68
*	*	*	*	*	*	*	*edit
4D	.	1r	.	2A	.	4F	-ra,
4E	.	.	.	.	.	4.f	ter-
4F	.	.	.	4F	.	.	.
.	.	.	.	.	.	8eL	.
[4G	.	.	.	[4B-y	.	8d	.
.	.	.	.	.	.	8cJ	.
=69	=69	=69	=69	=69	=69	=69	=69
4G]	.	1r	.	4B-]	.	2B-y	.
8FL	.	.	.	8AL	.	.	.
8EJ	.	.	.	8GJ	.	.	.
4D	.	.	.	4F	.	4A	.
4BB-y	.	.	.	[4G	.	4B-y	.
=70	=70	=70	=70	=70	=70	=70	=70
2C	.	1r	.	4G]	.	4G	.
.	.	.	.	4E	.	2c	.
2GG	-ra	.	.	2D	.	.	.
.	.	.	.	.	.	4Bni	.
=71	=71	=71	=71	=71	=71	=71	=71
*	*	*	*	*	*	*	*Xedit
2r	.	1r	.	1C	-ra	2c	-ra
2G	glo-	.	.	.	.	2r	.
=72	=72	=72	=72	=72	=72	=72	=72
4A	.	1r	.	4r	.	4.c	glo-
2A	-ri-	.	.	4.c	glo-	.	.
.	.	.	.	.	.	8d	.
.	.	.	.	.	.	4e	.
.	.	.	.	8B-y	.	.	.
8GL	.	.	.	4A	.	4f	.
8FJ	.	.	.	.	.	.	.
!!LO:LB:g=original
=73	=73	=73	=73	=73	=73	=73	=73
4E	.	1r	.	4G	.	4g	.
2F	.	.	.	4F	.	4a	.
.	.	.	.	2G	-ri-	2b-y	-ri-
4E	.	.	.	.	.	.	.
=74	=74	=74	=74	=74	=74	=74	=74
4.F	-a	1r	.	4F	-a-	4.a	-a
.	.	.	.	2c	.	.	.
8E	.	.	.	.	.	8g	.
4C	.	.	.	.	.	4e	.
[4E-X	.	.	.	[4B-y	.	[4g	.
=75	=75	=75	=75	=75	=75	=75	=75
8E-]L	.	1r	.	4B-]	.	8g]L	.
8DJ	.	.	.	.	.	8fJ	.
2F	.	.	.	4.A	.	4f	.
.	.	.	.	.	.	4.c	tu-
.	.	.	.	8G	.	.	.
[4C	tu-	.	.	4G	.	.	.
.	.	.	.	.	.	8B-y	.
=76	=76	=76	=76	=76	=76	=76	=76
4C]	.	1r	.	4E	-tu-	8AL	.
.	.	.	.	.	.	8GJ	.
4D	.	.	.	4F	.	4B-y	.
4C	.	.	.	4E	.	4A	.
*	*	*	*	*lig	*	*lig	*
[4BB-y	.	.	.	[4D	.	[4G	.
=77	=77	=77	=77	=77	=77	=77	=77
4BB-]	.	1r	.	4D]	.	4G]	.
4AA	.	.	.	2C	.	2F	.
*	*	*	*	*Xlig	*	*Xlig	*
2GG	.	.	.	.	.	.	.
.	.	.	.	4BB-y	.	4E	.
=78	=78	=78	=78	=78	=78	=78	=78
1FFl	-a.	1r	.	1Cl	-a.	1Fl	-a.
!!LO:LB:g=original
=79||	=79||	=79||	=79||	=79||	=79||	=79||	=79||
*M3/2	*	*M3/2	*	*M3/2	*	*M3/2	*
*met(C3)	*	*met(C3)	*	*met(C3)	*	*met(C3)	*
*col	*	*col	*	*col	*	*col	*
!!LO:TX:a:t=[C3]
2F	O-	2F	O-	2F	O-	2f	O-
2F	-san-	2A	-san-	2F	-san-	2f	-san-
*	*edit	*	*	*	*	*	*edit
2D	-na,	2B-y	-na,	2F	-na,	2f	-na,
=80	=80	=80	=80	=80	=80	=80	=80
*	*	*	*edit	*	*edit	*	*
2C	o-	1c	o-	1G	o-	2e	o-
1D	-san-	.	.	.	.	1d	-san-
.	.	2B-y	.	2F	.	.	.
=81	=81	=81	=81	=81	=81	=81	=81
2.C	.	1c	-san-	2.G	-san-	2e	.
.	.	.	.	.	.	2c	.
4BB-y	.	.	.	4A	.	.	.
2GG	.	2B-y	.	2B-y	.	2d	.
=82	=82	=82	=82	=82	=82	=82	=82
2FF	.	2A	.	1c	-na,	1f	.
1C	.	1G	.	.	.	.	.
.	.	.	.	2c	o-	2e	.
!!LO:LB:g=original
=83	=83	=83	=83	=83	=83	=83	=83
*lig	*	*lig	*	*lig	*	*	*
2FF	.	1F	.	2A	-san-	1f	-na,
2AA	.	.	.	2c	.	.	.
*Xlig	*	*	*	*Xlig	*	*	*
2BB-y	.	[2G	.	2B-y	.	2d	o-
=84	=84	=84	=84	=84	=84	=84	=84
*	*Xedit	*	*	*	*	*lig	*
2C	.	2G]	.	2G	.	2e	-san-
1FF	-na,	1A	.	1F	-na,	2.f	.
*	*	*Xlig	*	*	*	*Xlig	*
.	.	.	.	.	.	4e	.
=85	=85	=85	=85	=85	=85	=85	=85
*	*edit	*	*	*	*	*lig	*
2.FF	o-	1F	-na,	2.A	o-	2c	.
.	.	.	.	.	.	2A	.
*	*	*	*	*	*	*Xlig	*
4GG	.	.	.	4G	.	.	.
2AA	.	2r	.	2E	.	2c	.
=86	=86	=86	=86	=86	=86	=86	=86
2BB-y	-san-	1.r	.	2D	-san-	4B-y	.
.	.	.	.	.	.	2d	.
4C	.	.	.	4E	.	.	.
4E	.	.	.	2G	.	2c	.
2D	.	.	.	.	.	.	.
.	.	.	.	4F	.	4Bnj	.
=87	=87	=87	=87	=87	=87	=87	=87
2.C	.	1.r	.	4G	.	2.c	.
.	.	.	.	4.A	.	.	.
.	.	.	.	8G	.	.	.
4FF	.	.	.	2F	.	4B-y	.
2C	-na,	.	.	.	.	2G	.
.	.	.	.	4E	.	.	.
!!LO:PB:g=original
=88	=88	=88	=88	=88	=88	=88	=88
*	*	*	*	*	*	*	*Xedit
2.D	o-	1F	o-	2F	-na,	1F	-na,
.	.	.	.	1A	o-	.	.
4E	.	.	.	.	.	.	.
*	*	*	*	*	*	*	*edit
2F	.	[2D	-san-	.	.	[2f	o-
=89	=89	=89	=89	=89	=89	=89	=89
*lig	*	*	*	*	*	*	*
2D	-san-	2D]	.	2F	.	4f]	.
.	.	.	.	.	.	4e	.
*	*	*lig	*	*	*	*lig	*
2BB-y	.	2F	.	4.B-y	-san-	2d	-san-
*Xlig	*	*	*	*	*	*	*
.	.	.	.	8A	.	.	.
2C	.	2E	.	4G	.	2G	.
*	*	*Xlig	*	*	*	*	*
.	.	.	.	4E	.	.	.
=90	=90	=90	=90	=90	=90	=90	=90
2AA	.	2C	.	2F	.	1c	.
*	*	*	*	*	*	*Xlig	*
1GG	.	1D	.	1G	.	.	.
.	.	.	.	.	.	2Bni	.
=91	=91	=91	=91	=91	=91	=91	=91
1AA	-na,	1C	-na,	1E	-na,	2.c	-na,
.	.	.	.	.	.	4B-y	.
[2AA	o-	2r	.	2C	.	4A	.
.	.	.	.	.	.	8GL	.
.	.	.	.	.	.	8FJ	.
=92	=92	=92	=92	=92	=92	=92	=92
4AA]	.	1C	o-	2r	.	2E	o-
4GG	.	.	.	.	.	.	.
*	*	*	*	*	*	*lig	*
2FF	.	.	.	4.C	o-	2F	.
.	.	.	.	8D	.	.	.
2EE	.	2C	.	2E	.	2G	.
*	*	*	*	*	*	*Xlig	*
!!LO:LB:g=original
=93	=93	=93	=93	=93	=93	=93	=93
2FF	.	1F	-san-	1C	-san-	2A	-san-
1GG	-san-	.	.	.	.	2.B-y	.
.	.	2E	.	2BB-y	.	.	.
.	.	.	.	.	.	4G	.
=94	=94	=94	=94	=94	=94	=94	=94
*	*	*lig	*	*	*	*	*
4FF	.	2F	.	4C	.	4A	.
4BB-y	.	.	.	4D	.	4d	.
4AA	.	2A	.	4E	.	4c	.
*	*	*Xlig	*	*	*	*	*
4FF	.	.	.	4F	.	2f	.
2C	.	2G	.	2C	-na,	.	.
.	.	.	.	.	.	4e	.
=95	=95	=95	=95	=95	=95	=95	=95
1FF	-na,	1F	-na,	2c	o-	1f	-na,
.	.	.	.	4.A	-san-	.	.
.	.	.	.	8B-y	.	.	.
2AA	o-	2r	.	2c	.	2c	o-
=96	=96	=96	=96	=96	=96	=96	=96
*lig	*	*	*	*	*	*lig	*
2BB-y	.	1F	o-	2F	-na,	2d	.
2AA	.	.	.	2r	.	2c	.
*Xlig	*	*	*	*	*	*Xlig	*
2GG	.	2G	.	2r	.	2B-y	.
=97	=97	=97	=97	=97	=97	=97	=97
1C	-san-	1A	-san-	1E	o-	4c	-san-
.	.	.	.	.	.	2e	.
.	.	.	.	.	.	4f	.
2BB-y	.	2B-y	.	2F	.	2d	.
!!LO:LB:g=original
=98	=98	=98	=98	=98	=98	=98	=98
4.C	.	2A	.	4.E	-san-	4c	.
.	.	.	.	.	.	2g	.
8D	.	.	.	8F	.	.	.
4E	.	4G	.	2G	.	.	.
4C	.	2c	.	.	.	4e	.
2GG	.	.	.	[2G	.	2d	.
.	.	4B-y	.	.	.	.	.
=99	=99	=99	=99	=99	=99	=99	=99
4C	.	2c	.	4G]	.	4e	.
2F	.	.	.	2A	.	4.a	.
*	*	*lig	*	*	*	*	*
.	.	2F	.	.	.	.	.
.	.	.	.	.	.	8g	.
4D	.	.	.	4B-y	.	2f	.
2C	.	2G	.	2c	.	.	.
*	*	*Xlig	*	*	*	*	*
.	.	.	.	.	.	4e	.
=100	=100	=100	=100	=100	=100	=100	=100
1FF	-na	1F	-na	1A	-na	1f	-na
2r	.	2r	.	2A	.	2r	.
=101	=101	=101	=101	=101	=101	=101	=101
*	*Xedit	*	*	*	*Xedit	*	*Xedit
1FF	in	1.r	.	1A	in-	1c	in
2GG	.	.	.	2B-y	.	2B-y	.
=102	=102	=102	=102	=102	=102	=102	=102
*	*	*	*Xedit	*	*	*	*
1AA	ex-	1F	in	2c	.	1A	ex-
.	.	.	.	2F	-ex-	.	.
2BB-y	.	2G	.	2D	.	2G	.
!!LO:LB:g=original
=103	=103	=103	=103	=103	=103	=103	=103
2AA	.	1A	ex-	2E	.	1c	-cel-
1D	-cel-	.	.	1F	-cel-	.	.
.	.	2B-y	.	.	.	2B-y	.
=104	=104	=104	=104	=104	=104	=104	=104
2C	.	1A	-cel-	2E	.	2c	.
1BB-y	.	.	.	1D	.	1d	.
.	.	2G	.	.	.	.	.
=105	=105	=105	=105	=105	=105	=105	=105
*	*edit	*	*	*	*	*	*
1AA	-sis,	1A	.	1E	.	2c	.
*	*	*	*edit	*	*	*lig	*
.	.	.	.	.	.	2A	.
2r	.	2A	-sis,	2D	.	2F	.
=106	=106	=106	=106	=106	=106	=106	=106
*	*	*	*	*	*edit	*	*
1C	in	2r	.	1E	-sis,	1G	.
.	.	2r	.	.	.	.	.
*	*	*	*	*	*	*Xlig	*edit
2AA	.	[2c	in	[2A	in	2A	-sis,
=107	=107	=107	=107	=107	=107	=107	=107
2FF	ex-	2c]	.	2A]	.	1.r	.
*	*	*lig	*	*	*	*	*
2GG	.	2B-y	.	2B-y	.	.	.
*lig	*	*	*	*	*	*	*
[2AA	-cel-	2A	.	[2c	.	.	.
*	*	*Xlig	*	*	*	*	*
=108	=108	=108	=108	=108	=108	=108	=108
2AA]	.	2F	.	2c]	.	1.r	.
*	*	*lig	*	*	*	*	*
1BB-y	.	1G	.	2B-y	.	.	.
.	.	.	.	2d	.	.	.
!!LO:PB:g=original
=109	=109	=109	=109	=109	=109	=109	=109
1AA	.	1A	.	2.c	.	1a	in
*Xlig	*	*Xlig	*	*	*	*	*
.	.	.	.	4A	.	.	.
2EE	.	2r	.	2B-y	.	2g	.
=110	=110	=110	=110	=110	=110	=110	=110
1FF	.	1A	ex-	2A	.	2a	.
.	.	.	.	2r	.	1b-y	ex-
2EE	.	2G	.	2r	.	.	.
=111	=111	=111	=111	=111	=111	=111	=111
2FF	-sis,	2A	.	1A	ex-	2.a	-cel-
2r	.	1B-y	.	.	.	.	.
.	.	.	.	.	.	4f	.
2r	.	.	.	2G	.	2g	.
=112	=112	=112	=112	=112	=112	=112	=112
1.r	.	2A	.	2A	.	1f	.
.	.	1G	.	1B-y	.	.	.
.	.	.	.	.	.	2e	.
=113	=113	=113	=113	=113	=113	=113	=113
1FF	in	2.F	-cel-	1A	-cel-	1f	-sis,
.	.	4G	.	.	.	.	.
2C	ex-	2E	.	2G	.	2r	.
!!LO:LB:g=original
=114	=114	=114	=114	=114	=114	=114	=114
2D	.	2F	.	1F	.	1.r	.
1C	-cel-	1G	.	.	.	.	.
.	.	.	.	2E	.	.	.
=115	=115	=115	=115	=115	=115	=115	=115
*lig	*Xedit	*	*	*	*	*	*
2FF	-sis,	1F	-sis,	1F	-sis,	1c	in
2AA	.	.	.	.	.	.	.
*Xlig	*edit	*	*	*	*	*	*
2BB-y	in	2F	in	2r	.	2d	.
=116	=116	=116	=116	=116	=116	=116	=116
2FF	ex-	2A	ex-	1.r	.	2f	ex-
4C	.	1G	.	.	.	4e	.
2BB-y	-cel-	.	.	.	.	2d	.
4BB-y	.	.	.	.	.	4c	.
=117	=117	=117	=117	=117	=117	=117	=117
*	*	*	*Xedit	*	*	*	*
2C	.	2E	-cel-	1G	in	1c	-cel-
1GG	-sis,	1D	.	.	.	.	.
.	.	.	.	2G	ex-	2Bni	.
=118	=118	=118	=118	=118	=118	=118	=118
*	*	*	*	*lig	*	*	*
2G	in	2C	-sis,	2E	.	1.c	-sis,
*	*	*	*edit	*	*	*	*
1A	ex-	1F	in	2F	.	.	.
*	*	*	*	*Xlig	*	*	*
.	.	.	.	2A	.	.	.
!!LO:LB:g=original
=119	=119	=119	=119	=119	=119	=119	=119
*	*	*	*	*lig	*	*	*
2G	-cel-	2G	.	2B-y	-cel-	2r	.
2F	-sis,	1A	ex-	2.c	.	1f	in
*	*	*	*	*Xlig	*	*	*
2FF	in	.	.	.	.	.	.
.	.	.	.	4B-y	.	.	.
=120	=120	=120	=120	=120	=120	=120	=120
*lig	*	*	*	*lig	*	*	*
2EE	ex-	2B-y	-cel-	2G	.	2g	.
*	*	*lig	*	*	*	*	*
2FF	.	2A	.	2F	.	1a	ex-
*Xlig	*	*	*	*Xlig	*Xedit	*	*
2AA	.	2c	.	2C	-sis,	.	.
=121	=121	=121	=121	=121	=121	=121	=121
*lig	*	*Xlig	*	*	*edit	*lig	*
2BB-y	-cel-	2d	.	2r	.	2f	-cel-
2C	.	1c	.	2G	ex-	2e	.
*Xlig	*	*	*	*	*	*Xlig	*
2AA	.	.	.	[2A	-cel-	2c	.
=122	=122	=122	=122	=122	=122	=122	=122
4GG	.	4A	.	4A]	.	4f	.
2E-i	.	2B-y	.	2G	.	2g	.
4F	.	4A	.	2.c	.	2f	.
2C	.	2G	.	.	.	.	.
.	.	.	.	.	.	4e	.
=123	=123	=123	=123	=123	=123	=123	=123
*	*	*	*	*^	*	*	*
*Xcol	*Xedit	*Xcol	*	*Xcol	*Xcol	*Xedit	*Xcol	*Xedit
1.FFl	-sis.	1.Fl	-sis.	1.cl	1.Al	-sis.	1.fl	-sis.
*	*	*	*	*v	*v	*	*	*
!!LO:LB:g=original
=124||	=124||	=124||	=124||	=124||	=124||	=124||	=124||
*M2/2	*	*M2/2	*	*M2/2	*	*M2/2	*
*met(C|)	*	*met(C|)	*	*met(C|)	*	*met(C|)	*
*	*	*	*	*	*Xedit	*	*
1r	.	1r	.	1C	Be-	1r	.
=125	=125	=125	=125	=125	=125	=125	=125
*	*Xedit	*	*	*	*	*	*
1FF	Be-	1r	.	2C	-ne-	1r	.
*	*	*	*	*	*edit	*	*
.	.	.	.	2D	-di-	.	.
=126	=126	=126	=126	=126	=126	=126	=126
2FF	-ne-	1r	.	4C	.	1r	.
.	.	.	.	2F	.	.	.
*	*edit	*	*	*	*	*	*
2GG	-di-	.	.	.	.	.	.
.	.	.	.	4E	.	.	.
=127	=127	=127	=127	=127	=127	=127	=127
2FF	.	1r	.	4F	.	1r	.
.	.	.	.	2A	.	.	.
4F	.	.	.	.	.	.	.
4E	.	.	.	4G	.	.	.
=128	=128	=128	=128	=128	=128	=128	=128
4C	.	1r	.	4A	.	1r	.
2D	.	.	.	2B-y	.	.	.
4C	.	.	.	4A	.	.	.
=129	=129	=129	=129	=129	=129	=129	=129
4D	.	1r	.	4B-y	.	1r	.
4E	.	.	.	4G	.	.	.
2C	.	.	.	4.A	.	.	.
.	.	.	.	8B-y	.	.	.
!!LO:LB:g=original
=130	=130	=130	=130	=130	=130	=130	=130
2FF	-ctus,	1r	.	2c	.	1r	.
4r	.	.	.	2F	-ctus,	.	.
[4F	be-	.	.	.	.	.	.
=131	=131	=131	=131	=131	=131	=131	=131
8F]L	.	1r	.	2r	.	1r	.
8GJ	.	.	.	.	.	.	.
2A	-ne-	.	.	.	.	.	.
.	.	.	.	[2c	be-	.	.
8GL	.	.	.	.	.	.	.
8FJ	.	.	.	.	.	.	.
=132	=132	=132	=132	=132	=132	=132	=132
4A	.	1r	.	4c]	.	1r	.
2G	.	.	.	4B-y	.	.	.
.	.	.	.	2A	.	.	.
[4F	.	.	.	.	.	.	.
=133	=133	=133	=133	=133	=133	=133	=133
4F]	.	1r	.	2G	-ne-	1r	.
4E	.	.	.	.	.	.	.
*	*Xedit	*	*	*	*Xedit	*	*
4.F	-di-	.	.	4r	.	.	.
.	.	.	.	[4F	-di-	.	.
8E	.	.	.	.	.	.	.
=134	=134	=134	=134	=134	=134	=134	=134
4D	.	1r	.	8F]L	.	1r	.
.	.	.	.	8GJ	.	.	.
4C	.	.	.	4A	.	.	.
4BB-y	.	.	.	4B-y	.	.	.
[4C	.	.	.	[4A	.	.	.
=135	=135	=135	=135	=135	=135	=135	=135
4C]	.	1r	.	4A]	.	1r	.
4AA	.	.	.	2F	.	.	.
2GG	.	.	.	.	.	.	.
.	.	.	.	4E	.	.	.
!!LO:LB:g=original
=136	=136	=136	=136	=136	=136	=136	=136
[1FF	-ctus,	1r	.	2F	-ctus,	1c	Be-
.	.	.	.	2r	.	.	.
=137	=137	=137	=137	=137	=137	=137	=137
*	*	*	*	*	*edit	*	*
1FF]	.	1r	.	1F	be-	2c	-ne-
.	.	.	.	.	.	2d	.
=138	=138	=138	=138	=138	=138	=138	=138
1r	.	1r	.	2F	-ne-	4c	.
.	.	.	.	.	.	2f	.
.	.	.	.	2G	.	.	.
.	.	.	.	.	.	4e	.
=139	=139	=139	=139	=139	=139	=139	=139
*	*	*	*	*	*	*	*edit
1r	.	1r	.	4F	.	4.f	-di-
.	.	.	.	2B-y	.	.	.
.	.	.	.	.	.	8e	.
.	.	.	.	.	.	4.d	.
.	.	.	.	8AL	.	.	.
.	.	.	.	8GJ	.	8B-y	.
=140	=140	=140	=140	=140	=140	=140	=140
1r	.	1r	.	4A	.	4c	.
.	.	.	.	4.B-y	-di-	2d	.
.	.	.	.	8cL	.	.	.
.	.	.	.	8d	.	8cL	.
.	.	.	.	8eJ	.	8B-yJ	.
=141	=141	=141	=141	=141	=141	=141	=141
*	*edit	*	*	*	*	*	*
4.FF	be-	1r	.	2.f	.	4A	-ctus,
.	.	.	.	.	.	4d	be-
8GG	.	.	.	.	.	.	.
4AA	.	.	.	.	.	4c	.
4BB-y	.	.	.	8eL	.	[4B-y	-ne-
.	.	.	.	8dJ	.	.	.
!!LO:LB:g=original
=142	=142	=142	=142	=142	=142	=142	=142
2C	-ne-	1r	.	2c	.	4B-]	.
.	.	.	.	.	.	4A	.
4D	.	.	.	4B-y	-ctus,	4B-y	.
4E	.	.	.	4G	be-	4c	.
=143	=143	=143	=143	=143	=143	=143	=143
4F	-di-	1r	.	4F	.	4A	.
4.G	.	.	.	2.E-i	-ne-	4B-y	.
.	.	.	.	.	.	2G	.
8AL	.	.	.	.	.	.	.
8B-y	.	.	.	.	.	.	.
8cJ	.	.	.	.	.	.	.
=144	=144	=144	=144	=144	=144	=144	=144
*	*	*	*	*	*	*	*Xedit
4A	.	1r	.	4F	-di-	4F	-di-
2G	.	.	.	4G	.	4.B-y	.
.	.	.	.	4E	.	.	.
.	.	.	.	.	.	8cL	.
[4F	.	.	.	4F	.	8d	.
.	.	.	.	.	.	8eJ	.
=145	=145	=145	=145	=145	=145	=145	=145
4F]	.	1r	.	4A	.	4f	.
4E	.	.	.	4G	.	4g	.
4F	.	.	.	4F	.	4a	.
4G	.	.	.	4B-y	.	8b-yL	.
.	.	.	.	.	.	8aJ	.
=146	=146	=146	=146	=146	=146	=146	=146
4E	.	1r	.	4c	.	8gL	.
.	.	.	.	.	.	8fJ	.
4F	.	.	.	4A	.	2f	.
2C	.	.	.	2G	.	.	.
.	.	.	.	.	.	4e	.
=147	=147	=147	=147	=147	=147	=147	=147
[1FF	-ctus	1r	.	1F	-ctus	2f	-ctus
.	.	.	.	.	.	2r	.
!!LO:LB:g=original
=148	=148	=148	=148	=148	=148	=148	=148
1FF]	.	1r	.	2r	.	2.f	qui
*	*	*	*	*	*Xedit	*	*
.	.	.	.	[2F	qui	.	.
.	.	.	.	.	.	8eL	.
.	.	.	.	.	.	8dJ	.
=149	=149	=149	=149	=149	=149	=149	=149
1r	.	1r	.	4F]	.	4c	.
*	*	*	*	*	*	*	*edit
.	.	.	.	8EL	.	4f	ve-
.	.	.	.	8DJ	.	.	.
.	.	.	.	4C	.	4e	.
*	*	*	*	*	*	*lig	*
.	.	.	.	[4F	ve-	[4d	.
=150	=150	=150	=150	=150	=150	=150	=150
1r	.	1r	.	4F]	.	4d]	.
.	.	.	.	4E	.	2c	.
*	*	*	*	*	*	*Xlig	*
.	.	.	.	2D	.	.	.
.	.	.	.	.	.	4Bni	.
=151	=151	=151	=151	=151	=151	=151	=151
*	*	*	*	*	*edit	*	*
1r	.	1r	.	4.C	-nit,	2c	-nit,
.	.	.	.	8D	.	.	.
.	.	.	.	4E	.	2c	qui
.	.	.	.	[4F	qui	.	.
=152	=152	=152	=152	=152	=152	=152	=152
*	*Xedit	*	*	*	*	*	*
4.F	qui	1r	.	8F]L	.	4r	.
.	.	.	.	8GJ	.	.	.
*	*	*	*	*	*	*	*Xedit
.	.	.	.	4A	.	4c	ve-
8E	.	.	.	.	.	.	.
4C	.	.	.	4G	.	4e	.
4F	ve-	.	.	4F	.	4f	.
=153	=153	=153	=153	=153	=153	=153	=153
4E	.	1r	.	2c	ve-	4g	.
2D	.	.	.	.	.	4f	.
.	.	.	.	4B-y	.	4d	.
[4C	.	.	.	4c	.	4e	.
!!LO:LB:g=original
=154	=154	=154	=154	=154	=154	=154	=154
4C]	.	1r	.	4A	.	4c	.
4BB-y	.	.	.	4B-y	.	2f	.
2C	.	.	.	2G	.	.	.
.	.	.	.	.	.	4e	.
=155	=155	=155	=155	=155	=155	=155	=155
*	*	*	*	*	*Xedit	*	*
1C;	-nit	1r	.	1c;	-nit	1e;	-nit
=156	=156	=156	=156	=156	=156	=156	=156
1r	.	1r	.	2c	in	1r	.
.	.	.	.	2c	no-	.	.
=157	=157	=157	=157	=157	=157	=157	=157
1r	.	1r	.	2A	-mi-	1r	.
.	.	.	.	2F	-ne	.	.
=158	=158	=158	=158	=158	=158	=158	=158
*	*	*	*	*	*edit	*	*
2C	in	1r	.	2G	Do-	1r	.
2C	no-	.	.	2G	-mi-	.	.
=159	=159	=159	=159	=159	=159	=159	=159
2AA	-mi-	1r	.	2F	-ni,	2f	in
2FF	-ne	.	.	4r	.	2f	no-
.	.	.	.	4A	in	.	.
!!LO:PB:g=original
=160	=160	=160	=160	=160	=160	=160	=160
*	*edit	*	*	*	*	*	*
2GG	Do-	1r	.	4G	.	2d	-mi-
.	.	.	.	2B-y	no-	.	.
2GG	-mi-	.	.	.	.	2B-y	-ne
.	.	.	.	8AL	.	.	.
.	.	.	.	8GJ	.	.	.
=161	=161	=161	=161	=161	=161	=161	=161
*	*	*	*	*	*	*	*edit
2FF	-ni,	1r	.	2.A	.	2c	Do-
4r	.	.	.	.	.	2c	-mi-
4FF	in	.	.	8GL	.	.	.
.	.	.	.	8FJ	.	.	.
=162	=162	=162	=162	=162	=162	=162	=162
4BB-y	no-	1r	.	4G	.	4B-y	.
4AA	.	.	.	2A	.	2c	.
*lig	*	*	*	*	*	*	*
2FF	-mi-	.	.	.	.	.	.
.	.	.	.	[4F	-mi-	4A	.
=163	=163	=163	=163	=163	=163	=163	=163
2C	.	1r	.	4F]	.	2G	.
*Xlig	*	*	*	*	*	*	*
.	.	.	.	4E	.	.	.
2FF	-ne	.	.	2F	-ne	2F	-ni,
=164	=164	=164	=164	=164	=164	=164	=164
*lig	*Xedit	*	*	*	*Xedit	*	*
1EE-i	Do-	1r	.	1G	Do-	1B-y	in
=165	=165	=165	=165	=165	=165	=165	=165
*	*	*	*	*lig	*	*	*
1FF	.	1r	.	2F	.	2A	.
*Xlig	*	*	*	*	*	*	*
.	.	.	.	2A	.	2F	.
*	*	*	*	*Xlig	*	*	*
!!LO:LB:g=original
=166	=166	=166	=166	=166	=166	=166	=166
2GG	-mi-	1r	.	4.G	-mi-	4r	.
.	.	.	.	.	.	4B-y	no-
.	.	.	.	8F	.	.	.
4AA	.	.	.	4E	.	4c	.
4BB-y	.	.	.	4D	.	4d	.
=167	=167	=167	=167	=167	=167	=167	=167
4C	.	1r	.	4C	.	4e	.
4AA	.	.	.	2F	.	4f	.
2GG	.	.	.	.	.	4.d	.
.	.	.	.	4E	.	.	.
.	.	.	.	.	.	8c	.
=168	=168	=168	=168	=168	=168	=168	=168
*	*edit	*	*	*	*edit	*	*
4.FF	-ni,	1r	.	2F	-ni,	4.A	.
8GG	.	.	.	.	.	8B-y	.
4AA	.	.	.	4r	.	4c	.
[4BB-y	.	.	.	4F	in	[4d	.
=169	=169	=169	=169	=169	=169	=169	=169
4BB-]	.	1r	.	4G	no-	4d]	.
4C	.	.	.	4E	-mi-	2c	-mi-
2GG	.	.	.	2D	-ne	.	.
.	.	.	.	.	.	4Bni	.
=170	=170	=170	=170	=170	=170	=170	=170
*	*	*	*	*lig	*	*	*
4AA	Do-	1r	.	1C	Do-	2.c	-ne
4.FF	.	.	.	.	.	.	.
8GG	.	.	.	.	.	.	.
4AA	.	.	.	.	.	4A	.
=171	=171	=171	=171	=171	=171	=171	=171
4BB-y	.	1r	.	1D	.	4F	.
*	*	*	*	*	*	*	*Xedit
4.GG	.	.	.	.	.	2.B-y	Do-
8AA	.	.	.	.	.	.	.
4BB-y	.	.	.	.	.	.	.
!!LO:LB:g=original
=172	=172	=172	=172	=172	=172	=172	=172
4C	.	1r	.	1E	.	4G	.
4.AA	.	.	.	.	.	2c	.
8BB-y	.	.	.	.	.	.	.
4C	.	.	.	.	.	4A	.
=173	=173	=173	=173	=173	=173	=173	=173
4D	.	1r	.	1F	.	2F	.
*	*	*	*	*Xlig	*	*	*
4.BB-y	.	.	.	.	.	.	.
.	.	.	.	.	.	2f	-mi-
8C	.	.	.	.	.	.	.
4D	.	.	.	.	.	.	.
=174	=174	=174	=174	=174	=174	=174	=174
4E	.	1r	.	4G	-mi-	4.e	.
4.C	-mi-	.	.	4A	.	.	.
.	.	.	.	.	.	8f	.
.	.	.	.	4G	.	2g	.
8D	.	.	.	.	.	.	.
4E	.	.	.	4c	.	.	.
=175	=175	=175	=175	=175	=175	=175	=175
4F	.	1r	.	4A	.	4c	.
4D	.	.	.	4F	.	2f	.
2C	-ni,	.	.	2G	.	.	.
.	.	.	.	.	.	4e	.
=176	=176	=176	=176	=176	=176	=176	=176
*	*	*	*	*	*	*	*edit
2r	.	1r	.	[1F	-ni,	2.f	-ni,
4.FF	Do-	.	.	.	.	.	.
.	.	.	.	.	.	8eL	.
8GG	.	.	.	.	.	8dJ	.
=177	=177	=177	=177	=177	=177	=177	=177
4AA	.	1r	.	2F]	.	4c	.
4.BB-y	.	.	.	.	.	2d	Do-
*	*	*	*	*lig	*	*	*
.	.	.	.	2G	Do-	.	.
8GG	.	.	.	.	.	.	.
[4C	.	.	.	.	.	[4e	.
!!LO:LB:g=original
=178	=178	=178	=178	=178	=178	=178	=178
8C]L	.	1r	.	2A	.	4e]	.
8AAJ	.	.	.	.	.	.	.
4.D	.	.	.	.	.	2f	.
.	.	.	.	[2B-y	.	.	.
8BB-y	.	.	.	.	.	.	.
[4E-i	.	.	.	.	.	[4g	.
=179	=179	=179	=179	=179	=179	=179	=179
8E-]L	.	1r	.	2B-]	.	8g]L	.
*	*	*	*	*Xlig	*	*	*
8DJ	.	.	.	.	.	8fJ	.
4BB-y	.	.	.	.	.	4d	.
2C	.	.	.	2A	.	2e	.
=180	=180	=180	=180	=180	=180	=180	=180
4.BB-y	.	1r	.	2B-y	.	4d	.
.	.	.	.	.	.	4.f	.
8C	.	.	.	.	.	.	.
8DL	.	.	.	4.A	.	.	.
8EJ	.	.	.	.	.	8e	.
[4F	.	.	.	.	.	4c	.
.	.	.	.	8B-y	.	.	.
=181	=181	=181	=181	=181	=181	=181	=181
4F]	.	1r	.	4c	.	4A	.
4.FF	-mi-	.	.	2A	-mi-	2c	-mi-
8GGL	.	.	.	.	.	.	.
8AA	.	.	.	8GL	.	8B-yL	.
8BB-yJ	.	.	.	8FJ	.	8AJ	.
=182	=182	=182	=182	=182	=182	=182	=182
!!LO:TX:b:t=Osanna ut supra
1C;	-ni.	1r	.	1E;	-ni.	1G;	-ni.
==	==	==	==	==	==	==	==
*-	*-	*-	*-	*-	*-	*-	*-
!!!system-decoration: [*]
!!!RDF**kern: j = editorial accidental, optional, paren up
!!!RDF**kern: i = editorial accidental
!!!RDF**kern: l = terminal breve
!!!PTL: Gaspar van Weerbeke: Collected Works. I. Masses, Part 1
!!!PPR: American Institute of Musicology
!!!PC#: Corpus Mensurabilis Musicae 106/I.1
!!!PDT: 2016
!!!PED: Pavanello, Agnese
!!!EED: Mair-Gruber, Roland
!!!EEV: 2021/10/13
